img/icons/social/fb.svg

<svg width="20" height="20" viewBox="0 0 20 20" fill="none" xmlns="http://www.w3.org/2000/svg">
<path d="M19.8577 10.1007C19.8577 4.8836 15.6284 0.654297 10.4113 0.654297C5.19415 0.654297 0.964844 4.8836 0.964844 10.1007C0.964844 14.8156 4.41924 18.7237 8.93526 19.4324V12.8313H6.53676V10.1007H8.93526V8.01955C8.93526 5.65204 10.3456 4.3443 12.5033 4.3443C13.5365 4.3443 14.6179 4.5288 14.6179 4.5288V6.85351H13.4267C12.2533 6.85351 11.8873 7.58173 11.8873 8.32951V10.1007H14.5072L14.0884 12.8313H11.8873V19.4324C16.4033 18.7237 19.8577 14.8156 19.8577 10.1007Z" fill="white"/>
</svg>

<svg width="20" height="20" fill="none" xmlns="http://www.w3.org/2000/svg"><path d="M19.858 10.1a9.446 9.446 0 00-18.893 0 9.447 9.447 0 007.97 9.332v-6.6H6.537V10.1h2.398V8.02c0-2.368 1.41-3.676 3.568-3.676 1.034 0 2.115.185 2.115.185v2.325h-1.191c-1.174 0-1.54.728-1.54 1.476v1.77h2.62l-.419 2.731h-2.2v6.601c4.515-.708 7.97-4.616 7.97-9.331z" fill="#fff"/></svg>
